packages/foundations/assets/icons/functional/images/technology/augmented_reality_32.svg

<svg width="32" height="32" viewBox="0 0 32 32" fill="none" xmlns="http://www.w3.org/2000/svg">
<g clip-path="url(#clip0_187_550)">
<path fill-rule="evenodd" clip-rule="evenodd" d="M15.9988 22.9984C16.5117 22.9984 16.9982 23.4154 16.9988 23.9984L16.9982 25.7176L18.2334 25.0984C18.727 24.8507 19.3279 25.05 19.5757 25.5436C19.8058 26.0019 19.6432 26.6088 19.1306 26.8859L16.4486 28.2321C16.2067 28.3536 15.8492 28.3755 15.5576 28.2321L12.871 26.8867C12.3774 26.6389 12.1781 26.0379 12.4259 25.5443C12.6559 25.086 13.2637 24.8361 13.7682 25.0992L14.9982 25.7157L14.9988 23.9984C14.9988 23.4461 15.4465 22.9984 15.9988 22.9984ZM27.6655 18.6658L27.6679 21.9829C27.6682 22.3493 27.4568 22.7054 27.1165 22.8774L23.7066 24.589C23.213 24.8367 22.612 24.6374 22.3643 24.1438C22.1342 23.6855 22.3005 23.0586 22.8094 22.8015L24.4232 21.9897L23.4408 21.3287C22.9827 21.0202 22.8613 20.3988 23.1698 19.9407C23.4562 19.5153 24.0407 19.3492 24.5578 19.6697L25.6662 20.4156L25.6655 18.6658C25.6651 18.1151 26.1317 17.6651 26.6648 17.6651C27.1979 17.6651 27.6655 18.1059 27.6655 18.6658ZM5.33215 17.6651C5.84499 17.6651 6.33115 18.0763 6.33215 18.6658L6.33115 20.4146L7.44029 19.6689C7.8984 19.3604 8.51984 19.4818 8.8283 19.9399C9.11474 20.3653 9.03619 21.0078 8.55735 21.3279L7.57415 21.9897L9.15464 22.7834C9.6917 23.0597 9.82982 23.6674 9.59976 24.1258C9.3697 24.5841 8.82258 24.8383 8.2617 24.5709L4.88354 22.8774C4.58309 22.7265 4.33215 22.3878 4.33215 21.9829V18.6651C4.33215 18.1128 4.77987 17.6651 5.33215 17.6651ZM19.8486 11.7604C21.4175 11.7604 22.2019 12.4504 22.2019 13.8304C22.2019 14.3952 22.063 14.8285 21.7852 15.1301C21.5793 15.3484 21.272 15.5185 20.8635 15.6404C21.1348 15.7848 21.3603 16.0384 21.5401 16.401C22.0165 17.3883 22.3744 18.1266 22.6137 18.6161C22.7541 18.9033 22.5185 19.2364 21.9813 19.2364C21.7149 19.2364 21.2481 19.156 21.076 18.8116L20.0839 16.7332C19.9499 16.4507 19.8192 16.2598 19.6917 16.1603C19.5806 16.0737 19.4024 16.0303 19.1573 16.0303H18.654V18.4544C18.654 18.8863 18.3039 19.2364 17.872 19.2364C17.4401 19.2364 17.09 18.8863 17.09 18.4544V12.3834C17.09 12.0393 17.3689 11.7604 17.713 11.7604H19.8486ZM19.6819 12.935H18.6506V14.9665H19.6721C20.048 14.9665 20.3127 14.8814 20.4663 14.7113C20.5938 14.5733 20.6576 14.3294 20.6576 13.9796C20.6576 13.694 20.6314 13.4854 20.5791 13.3538C20.4712 13.0746 20.1722 12.935 19.6819 12.935ZM9.60092 7.82431C9.8278 8.28423 9.66892 8.90894 9.15464 9.16353L7.51515 9.96665L8.55782 10.6697C9.02198 10.9889 9.14084 11.6021 8.8072 12.0976C8.47356 12.5931 7.89562 12.6109 7.44029 12.3287L6.33115 11.5816L6.33215 13.3317C6.33215 13.908 5.84499 14.3317 5.33215 14.3317C4.81932 14.3317 4.33215 13.9202 4.33215 13.3324V9.93008C4.33215 9.57154 4.55352 9.19165 4.88975 9.03326L8.2617 7.36989C8.757 7.12556 9.35659 7.32901 9.60092 7.82431ZM23.7305 7.36989L27.1103 9.03326C27.4484 9.20773 27.6587 9.52376 27.6655 9.93079V13.3324C27.6651 13.8847 27.2171 14.3321 26.6648 14.3318C26.1519 14.3314 25.6662 13.9232 25.6662 13.3324V11.5806L24.5573 12.3279C24.0992 12.6363 23.4778 12.515 23.1693 12.0569C22.8829 11.6315 22.9426 11.0231 23.4408 10.6697L24.4822 9.96665L22.8457 9.15964C22.2878 8.87328 22.145 8.27466 22.4266 7.74682C22.7082 7.21898 23.3126 7.1802 23.7305 7.36989ZM12.8745 11.7604C13.2018 11.7604 13.4983 11.9495 13.6208 12.2743L15.9997 18.5823C16.1329 18.9353 16.0697 19.2364 15.44 19.2364C14.8803 19.2364 14.6716 19.0957 14.5304 18.7458L14.0873 17.6477H11.3119L10.9387 18.6524C10.7816 19.0752 10.5656 19.2364 10.0058 19.2364C9.44603 19.2364 9.31102 18.958 9.44603 18.6056L11.8716 12.2743C11.9773 11.9985 12.2205 11.7604 12.5247 11.7604H12.8745ZM12.7497 13.7573L11.7584 16.5327H13.7409L12.7497 13.7573ZM16.4424 3.77083L19.1566 5.10974C19.6519 5.35407 19.8554 5.95365 19.611 6.44895C19.3842 6.90887 18.8017 7.15545 18.2718 6.90337L16.9982 6.27465L16.9988 7.49839C16.9988 8.05068 16.5511 8.49839 15.9988 8.49839C15.486 8.49839 14.9988 8.10487 14.9988 7.49839L14.9982 6.27565L13.7944 6.87071C13.2202 7.14299 12.6613 6.87283 12.4432 6.40619C12.225 5.93954 12.3238 5.38581 12.9096 5.07707L15.5576 3.77083C15.8493 3.64041 16.1044 3.62823 16.4424 3.77083Z" fill="#1A1C1F"/>
</g>
<defs>
<clipPath id="clip0_187_550">
<rect width="32" height="32" fill="white"/>
</clipPath>
</defs>
</svg>

<svg xmlns="http://www.w3.org/2000/svg" width="32" height="32" fill="none"><g clip-path="url(#a)"><path fill="#1A1C1F" fill-rule="evenodd" d="M15.999 22.998c.513 0 1 .417 1 1v1.72l1.234-.62a1 1 0 0 1 1.343.446c.23.458.067 1.065-.445 1.342l-2.682 1.346c-.242.122-.6.143-.891 0l-2.687-1.345a1 1 0 0 1-.445-1.343c.23-.458.838-.708 1.342-.445l1.23.617v-1.718a1 1 0 0 1 1-1m11.667-4.332.002 3.317c0 .366-.211.722-.552.894l-3.41 1.712a1 1 0 0 1-1.342-.445 1.015 1.015 0 0 1 .445-1.342l1.614-.812-.982-.661a1 1 0 0 1-.271-1.388c.286-.426.87-.592 1.388-.271l1.108.746v-1.75c0-.55.466-1 .999-1s1 .44 1 1m-22.334-1c.513 0 1 .41 1 1v1.749l1.108-.746a1 1 0 0 1 1.388.27c.287.426.208 1.069-.27 1.389l-.984.662 1.58.793a.995.995 0 0 1 .446 1.343.983.983 0 0 1-1.338.445l-3.378-1.694c-.3-.15-.552-.49-.552-.894v-3.318a1 1 0 0 1 1-1M19.85 11.76q2.353 0 2.353 2.07 0 .848-.417 1.3-.309.327-.922.51.407.217.677.761.715 1.481 1.074 2.215c.14.287-.096.62-.633.62-.266 0-.733-.08-.905-.424l-.992-2.079q-.201-.423-.392-.573-.167-.13-.535-.13h-.503v2.424a.782.782 0 1 1-1.564 0v-6.07c0-.345.279-.624.623-.624zm-.167 1.175H18.65v2.031h1.021q.564 0 .794-.255.192-.207.192-.731 0-.43-.079-.626-.162-.42-.897-.419M9.6 7.825c.227.46.068 1.084-.446 1.339l-1.64.803 1.043.703c.464.319.583.932.25 1.428-.334.495-.912.513-1.368.23l-1.109-.746.001 1.75c0 .576-.487 1-1 1s-1-.412-1-1V9.93c0-.358.222-.738.558-.897L8.262 7.37a1 1 0 0 1 1.339.454m14.13-.455 3.38 1.663c.337.175.548.49.555.898v3.401a1 1 0 0 1-2 0v-1.751l-1.109.747a1 1 0 0 1-1.116-1.658l1.041-.703-1.636-.807c-.558-.287-.701-.885-.42-1.413.282-.528.887-.567 1.305-.377m-10.857 4.39c.328 0 .624.19.747.514L16 18.582c.133.353.07.654-.56.654-.56 0-.768-.14-.91-.49l-.443-1.098h-2.775l-.373 1.004c-.157.423-.373.584-.933.584s-.695-.278-.56-.63l2.426-6.332c.105-.275.348-.514.653-.514zm-.124 1.997-.992 2.776h1.983zm3.692-9.986 2.715 1.339a1 1 0 0 1 .454 1.339c-.227.46-.81.706-1.34.454l-1.273-.628v1.223a1 1 0 0 1-1 1 .99.99 0 0 1-1-1V6.276l-1.204.595a.987.987 0 0 1-1.35-.465c-.219-.466-.12-1.02.466-1.329l2.648-1.306c.291-.13.546-.143.884 0" clip-rule="evenodd"/></g><defs><clipPath id="a"><path fill="#fff" d="M0 0h32v32H0z"/></clipPath></defs></svg>
